X:112
T:Reels simple chords 272
M:3/4
L:1/8
K:D
AG [F2D,2F,2A,2] A2 | d2 c2 [BG,B,D]A | Bc B2 g2 | [e2A,2C2E2G2] c2 A2 | c2 [dD,F,A,]c de |
d2 AG [F2D,2F,2A,2] | A2 d2 c2 | [BG,B,D]A Bc B2 | g2 [e2A,2C2E2G2] c2 |
A2 c2 [d4D,4F,4A,4] | d2 AG | [F2D,2F,2A,2] A2 d2 | c2 [BG,B,D]A Bc |
B2 g2 [e2A,2C2E2G2] | c2 A2 c2 | [dD,F,A,]c de d2 | AG [F2D,2F,2A,2] A2 |
d2 c2 [BG,B,D]A | Bc B2 g2 | [e2A,2C2E2G2] c2 A2 | c2 [d4D,4F,4A,4] |
d2 AG [F2D,2F,2A,2] | A2 d2 c2 | [BG,B,D]A Bc B2 | g2 [e2A,2C2E2G2] c2 |
A2 c2 [dD,F,A,]c | de d2 AG | [F2D,2F,2A,2] A2 d2 | c2 [BG,B,D]A Bc |
B2 g2 [e2A,2C2E2G2] | c2 A2 c2 | [d4D,4F,4A,4] d2 | AG [F2D,2F,2A,2] A2 |
d2 c2 [BG,B,D]A | Bc B2 g2 | [e2A,2C2E2G2] c2 A2 | c2 [dD,F,A,]c de |
d2 AG [F2D,2F,2A,2] | A2 d2 c2 | [BG,B,D]A Bc B2 | g2 [e2A,2C2E2G2] c2 |
A2 c2 [d4D,4F,4A,4] | d2 a2 | [f2D,2F,2A,2] d2 B2 | ^d2 [eE,G,B,]d ef |
e2 g2 [e2A,2C2E2G2] | c2 A2 c2 | [dD,F,A,]c de d2 | AG [F2D,2F,2A,2] A2 |
d2 c2 [BG,B,D]A | Bc B2 g2 | [e2A,2C2E2G2] c2 A2 | c2 [d4D,4F,4A,4] |
d2 a2 [f2D,2F,2A,2] | d2 B2 ^d2 | [eE,G,B,]^d ef e2 | g2 [e2A,2C2E2G2] c2 |
A2 c2 [dD,F,A,]c | de d2 AG | [F2D,2F,2A,2] A2 d2 | c2 [BG,B,D]A Bc |
B2 g2 [e2A,2C2E2G2] | c2 A2 c2 | [d4D,4F,4A,4] d2 | a2 [f2D,2F,2A,2] d2 |
B2 ^d2 [eE,G,B,]d | ef e2 g2 | [e2A,2C2E2G2] c2 A2 | c2 [dD,F,A,]c de |
d2 AG [F2D,2F,2A,2] | A2 d2 c2 | [BG,B,D]A Bc B2 | g2 [e2A,2C2E2G2] c2 |
A2 c2 [d4D,4F,4A,4] | d2 a2 | [f2D,2F,2A,2] d2 B2 | ^d2 [eE,G,B,]d ef |
e2 g2 [e2A,2C2E2G2] | c2 A2 c2 | [dD,F,A,]c de d2 | AG [F2D,2F,2A,2] A2 |
d2 c2 [BG,B,D]A | Bc B2 g2 | [e2A,2C2E2G2] c2 A2 | c2 [d4D,4F,4A,4] |
d2 AG [F2D,2F,2A,2] | F2 F2 EF | [G2G,2B,2D2] G2 G2 | GF [E2A,2C2E2G2] E2 |
E2 DE [F2D,2F,2A,2] | F2 F2 AG | [F2B,2D2F2] F2 F2 | dc [B2E,2G,2B,2] B2 |
B2 g2 [e2A,2C2E2G2] | c2 A2 c2 | [d4D,4F,4A,4] d2 | AG [F2D,2F,2A,2] F2 |
F2 EF [G2G,2B,2D2] | G2 G2 GF | [E2A,2C2E2G2] E2 E2 | DE [F2D,2F,2A,2] F2 |
F2 AG [F2B,2D2F2] | F2 F2 dc | [B2E,2G,2B,2] B2 B2 | g2 [e2A,2C2E2G2] c2 |
A2 c2 [d4D,4F,4A,4] | d2 AG | [F2D,2F,2A,2] F2 F2 | EF [G2G,2B,2D2] G2 |
G2 GF [E2A,2C2E2G2] | E2 E2 DE | [F2D,2F,2A,2] F2 F2 | AG [F2B,2D2F2] F2 |
F2 dc [B2E,2G,2B,2] | B2 B2 g2 | [e2A,2C2E2G2] c2 A2 | c2 [d4D,4F,4A,4] |
d2 AG [F2D,2F,2A,2] | F2 F2 EF | [G2G,2B,2D2] G2 G2 | GF [E2A,2C2E2G2] E2 |
E2 DE [F2D,2F,2A,2] | F2 F2 AG | [F2B,2D2F2] F2 F2 | dc [B2E,2G,2B,2] B2 |
B2 g2 [e2A,2C2E2G2] | c2 A2 c2 | [d4D,4F,4A,4] d2 |


